img/white_arrow_icon.svg

<svg height="30" viewBox="0 0 30 30" width="30" xmlns="http://www.w3.org/2000/svg"><g fill="#fff"><path d="m9.49 6.365v17.27l14.956-8.635z"/><path d="m14.9470408 29.9295918c-8.23193876 0-14.9292857-6.6971938-14.9292857-14.9295918 0-8.23193878 6.69719388-14.92928571 14.9292857-14.92928571 8.2320919 0 14.9291327 6.69734693 14.9291327 14.92928571 0 8.2322449-6.6971939 14.9295918-14.9291327 14.9295918zm0-28.63438772c-7.5567857 0-13.7047959 6.14801021-13.7047959 13.70479592 0 7.5569388 6.1480102 13.705102 13.7047959 13.705102s13.7047959-6.1480102 13.7047959-13.705102c0-7.55678571-6.1480102-13.70479592-13.7047959-13.70479592z"/></g></svg>

<svg xmlns="http://www.w3.org/2000/svg" width="30" height="30" viewBox="0 0 30 30">
  <g fill="#FFF">
    <polygon points="9.49 6.365 9.49 23.635 24.446 15"/>
    <path d="M14.9470408,29.9295918 C6.71510204,29.9295918 0.017755102,23.232398 0.017755102,15 C0.017755102,6.76806122 6.71494898,0.0707142857 14.9470408,0.0707142857 C23.1791327,0.0707142857 29.8761735,6.76806122 29.8761735,15 C29.8761735,23.2322449 23.1789796,29.9295918 14.9470408,29.9295918 Z M14.9470408,1.29520408 C7.3902551,1.29520408 1.2422449,7.44321429 1.2422449,15 C1.2422449,22.5569388 7.3902551,28.705102 14.9470408,28.705102 C22.5038265,28.705102 28.6518367,22.5570918 28.6518367,15 C28.6518367,7.44321429 22.5038265,1.29520408 14.9470408,1.29520408 Z"/>
  </g>
</svg>
